dist/img/partners/partner-1.svg

<svg width="237" height="40" viewBox="0 0 237 40" fill="none" xmlns="http://www.w3.org/2000/svg">
<path fill-rule="evenodd" clip-rule="evenodd" d="M0 23.9194C0 31.6772 4.27797 39.5 13.8576 39.5C23.4284 39.5 27.7147 31.6772 27.7147 23.9194C27.7147 18.6208 25.9568 12.5194 23.0231 7.58994C20.1698 2.83075 16.7414 0 13.8576 0C10.965 0 7.53572 2.83075 4.70719 7.58994C1.7589 12.5194 0 18.6208 0 23.9194ZM98.3883 11.6386H88.6878V2.11615H118.481V11.6386H108.781L108.781 37.384H98.3877L98.3883 11.6386ZM140.648 11.6387H155.893V2.11631H140.65C126.644 2.11631 119.166 9.2051 119.166 19.7502C119.166 30.2953 126.644 37.3842 140.65 37.3842H155.893V27.8617H140.648C134.168 27.8617 129.905 25.5032 129.905 19.7502C129.905 13.9972 134.168 11.6387 140.648 11.6387ZM62.0062 23.1671L67.5469 2.11631H85.9123V37.3842H75.5198V8.67957L67.9645 37.3842H56.0481L48.4977 8.69748V37.3842H38.1046V2.11631H56.4655L62.0062 23.1671ZM174.849 12.339H171.184V15.7888H174.849C175.777 15.7888 176.33 15.3036 176.33 14.4088V13.7698C176.33 12.8496 175.853 12.339 174.849 12.339ZM175.777 19.7502H166.288V2.11584H180.246V6.33309H171.184V8.63282H175.777C179.618 8.63282 181.476 10.5752 181.476 13.9997C181.476 17.6033 179.618 19.7502 175.777 19.7502ZM192.769 12.543H188.903L190.836 6.0265L192.769 12.543ZM200.199 19.7502L194.853 2.11631H187.572L182.225 19.7502H186.795L187.773 16.3765H193.899L194.903 19.7502H200.199ZM212.574 19.7502V12.9267H206.976V19.7502H201.955V2.11631H206.976V8.58203H212.574V2.11631H217.595V19.7502H212.574ZM226.508 8.58187H225.629V2.11615H220.607V19.75H225.629V12.9265H226.356L231.001 19.75H236.8L230.524 10.5243L236.298 2.11615H231.001L226.508 8.58187Z" fill="#E30611"/>
</svg>

<svg width="237" height="40" fill="none" xmlns="http://www.w3.org/2000/svg"><path fill-rule="evenodd" clip-rule="evenodd" d="M0 23.92C0 31.676 4.278 39.5 13.858 39.5c9.57 0 13.857-7.823 13.857-15.58 0-5.3-1.758-11.4-4.692-16.33C20.17 2.83 16.741 0 13.858 0c-2.893 0-6.322 2.83-9.15 7.59C1.757 12.52 0 18.62 0 23.92Zm98.388-12.281h-9.7V2.116h29.793v9.523h-9.7v25.745H98.388V11.639Zm42.26 0h15.245V2.116H140.65c-14.006 0-21.484 7.09-21.484 17.634 0 10.545 7.478 17.634 21.484 17.634h15.243v-9.522h-15.245c-6.48 0-10.743-2.359-10.743-8.112s4.263-8.111 10.743-8.111ZM62.006 23.167l5.54-21.05h18.366v35.267H75.52V8.68l-7.555 28.704H56.047l-7.55-28.687v28.687H38.105V2.116h18.36l5.541 21.051ZM174.85 12.34h-3.665v3.45h3.665c.928 0 1.481-.485 1.481-1.38v-.64c0-.92-.477-1.43-1.481-1.43Zm.928 7.411h-9.489V2.116h13.958v4.217h-9.062v2.3h4.593c3.841 0 5.699 1.942 5.699 5.367 0 3.603-1.858 5.75-5.699 5.75Zm16.992-7.207h-3.866l1.933-6.516 1.933 6.516Zm7.43 7.207-5.346-17.634h-7.281l-5.347 17.634h4.57l.978-3.373h6.126l1.004 3.373h5.296Zm12.375 0v-6.823h-5.598v6.823h-5.021V2.116h5.021v6.466h5.598V2.116h5.021V19.75h-5.021Zm13.934-11.168h-.879V2.116h-5.022V19.75h5.022v-6.823h.727l4.645 6.823h5.799l-6.276-9.226 5.774-8.408h-5.297l-4.493 6.466Z" fill="#E30611"/></svg>
